svg/volume-high.svg

<?xml version="1.0" encoding="UTF-8" standalone="no"?>
<svg
   xmlns:dc="http://purl.org/dc/elements/1.1/"
   xmlns:cc="http://creativecommons.org/ns#"
   xmlns:rdf="http://www.w3.org/1999/02/22-rdf-syntax-ns#"
   xmlns:svg="http://www.w3.org/2000/svg"
   xmlns="http://www.w3.org/2000/svg"
   xmlns:sodipodi="http://sodipodi.sourceforge.net/DTD/sodipodi-0.dtd"
   xmlns:inkscape="http://www.inkscape.org/namespaces/inkscape"
   class="ionicon"
   viewBox="0 0 512 512"
   version="1.1"
   id="svg10"
   sodipodi:docname="volume-high.svg"
   inkscape:version="1.0.2 (e86c8708, 2021-01-15)">
  <metadata
     id="metadata16">
    <rdf:RDF>
      <cc:Work
         rdf:about="">
        <dc:format>image/svg+xml</dc:format>
        <dc:type
           rdf:resource="http://purl.org/dc/dcmitype/StillImage" />
      </cc:Work>
    </rdf:RDF>
  </metadata>
  <defs
     id="defs14" />
  <sodipodi:namedview
     pagecolor="#ffffff"
     bordercolor="#666666"
     borderopacity="1"
     objecttolerance="10"
     gridtolerance="10"
     guidetolerance="10"
     inkscape:pageopacity="0"
     inkscape:pageshadow="2"
     inkscape:window-width="689"
     inkscape:window-height="480"
     id="namedview12"
     showgrid="false"
     inkscape:zoom="1.3027344"
     inkscape:cx="256"
     inkscape:cy="256"
     inkscape:window-x="44"
     inkscape:window-y="25"
     inkscape:window-maximized="0"
     inkscape:current-layer="svg10" />
  <title
     id="title2">Volume High</title>
  <path
     style="color:#000000;font-style:normal;font-variant:normal;font-weight:normal;font-stretch:normal;font-size:medium;line-height:normal;font-family:sans-serif;font-variant-ligatures:normal;font-variant-position:normal;font-variant-caps:normal;font-variant-numeric:normal;font-variant-alternates:normal;font-variant-east-asian:normal;font-feature-settings:normal;font-variation-settings:normal;text-indent:0;text-align:start;text-decoration:none;text-decoration-line:none;text-decoration-style:solid;text-decoration-color:#000000;letter-spacing:normal;word-spacing:normal;text-transform:none;writing-mode:lr-tb;direction:ltr;text-orientation:mixed;dominant-baseline:auto;baseline-shift:baseline;text-anchor:start;white-space:normal;shape-padding:0;shape-margin:0;inline-size:0;clip-rule:nonzero;display:inline;overflow:visible;visibility:visible;isolation:auto;mix-blend-mode:normal;color-interpolation:sRGB;color-interpolation-filters:linearRGB;solid-color:#000000;solid-opacity:1;vector-effect:none;fill:#000000;fill-opacity:1;fill-rule:nonzero;stroke-width:1;stroke-linecap:butt;stroke-linejoin:miter;stroke-miterlimit:4;stroke-dasharray:none;stroke-dashoffset:0;stroke-opacity:1;color-rendering:auto;image-rendering:auto;shape-rendering:auto;text-rendering:auto;enable-background:accumulate;stop-color:#000000;stop-opacity:1;stroke:none;opacity:1"
     d="m 232,416 c -5.11226,1.9e-4 -10.08964,-1.64024 -14.2,-4.68 -0.22844,-0.15879 -0.44872,-0.32901 -0.66,-0.51 L 125.76,336 H 56 C 42.745166,336 32,325.25483 32,312 V 200 c 0,-13.25483 10.745166,-24 24,-24 h 69.75 l 91.37,-74.81 c 0.21128,-0.18099 0.43156,-0.35121 0.66,-0.51 15.84369,-11.653094 38.20878,-0.34766 38.22,19.32 v 272 c 0,13.25483 -10.74517,24 -24,24 z M 125.82,336 Z M 125.55,176.14 Z M 320,336 c -11.9095,-0.003 -19.64183,-12.55073 -14.29,-23.19 9.49,-18.87 14.3,-38 14.3,-56.81 0,-19.38 -4.66,-37.94 -14.25,-56.73 -3.82234,-7.84115 -0.65938,-17.29901 7.11098,-21.26326 7.77036,-3.96425 17.28417,-0.97376 21.38902,6.72326 11.93,23.39 17.74,46.71 17.74,71.27 0,23.86 -6,47.81 -17.7,71.19 -2.71816,5.40362 -8.25124,8.81246 -14.3,8.81 z"
     id="path4" />
  <path
     style="color:#000000;font-style:normal;font-variant:normal;font-weight:normal;font-stretch:normal;font-size:medium;line-height:normal;font-family:sans-serif;font-variant-ligatures:normal;font-variant-position:normal;font-variant-caps:normal;font-variant-numeric:normal;font-variant-alternates:normal;font-variant-east-asian:normal;font-feature-settings:normal;font-variation-settings:normal;text-indent:0;text-align:start;text-decoration:none;text-decoration-line:none;text-decoration-style:solid;text-decoration-color:#000000;letter-spacing:normal;word-spacing:normal;text-transform:none;writing-mode:lr-tb;direction:ltr;text-orientation:mixed;dominant-baseline:auto;baseline-shift:baseline;text-anchor:start;white-space:normal;shape-padding:0;shape-margin:0;inline-size:0;clip-rule:nonzero;display:inline;overflow:visible;visibility:visible;isolation:auto;mix-blend-mode:normal;color-interpolation:sRGB;color-interpolation-filters:linearRGB;solid-color:#000000;solid-opacity:1;vector-effect:none;fill:#000000;fill-opacity:1;fill-rule:nonzero;stroke-width:1;stroke-linecap:butt;stroke-linejoin:miter;stroke-miterlimit:4;stroke-dasharray:none;stroke-dashoffset:0;stroke-opacity:1;color-rendering:auto;image-rendering:auto;shape-rendering:auto;text-rendering:auto;enable-background:accumulate;stop-color:#000000;stop-opacity:1;stroke:none;opacity:1"
     d="m 368,384 c -12.3184,0.003 -20.0192,-13.33195 -13.86,-24 18.91,-32.91 29.86,-60.49 29.86,-104 0,-44.17 -10.93,-71.56 -29.82,-103.94 -4.31106,-7.61974 -1.69758,-17.2894 5.86499,-21.69999 7.56256,-4.41058 17.26566,-1.9241 21.77501,5.57999 21.1,36.17 34.18,68.87 34.18,120.06 0,50.43 -13.06,83.29 -34.13,120 -2.86055,4.95463 -8.14889,8.00486 -13.87,8 z"
     id="path6" />
  <path
     style="color:#000000;font-style:normal;font-variant:normal;font-weight:normal;font-stretch:normal;font-size:medium;line-height:normal;font-family:sans-serif;font-variant-ligatures:normal;font-variant-position:normal;font-variant-caps:normal;font-variant-numeric:normal;font-variant-alternates:normal;font-variant-east-asian:normal;font-feature-settings:normal;font-variation-settings:normal;text-indent:0;text-align:start;text-decoration:none;text-decoration-line:none;text-decoration-style:solid;text-decoration-color:#000000;letter-spacing:normal;word-spacing:normal;text-transform:none;writing-mode:lr-tb;direction:ltr;text-orientation:mixed;dominant-baseline:auto;baseline-shift:baseline;text-anchor:start;white-space:normal;shape-padding:0;shape-margin:0;inline-size:0;clip-rule:nonzero;display:inline;overflow:visible;visibility:visible;isolation:auto;mix-blend-mode:normal;color-interpolation:sRGB;color-interpolation-filters:linearRGB;solid-color:#000000;solid-opacity:1;vector-effect:none;fill:#000000;fill-opacity:1;fill-rule:nonzero;stroke-width:1;stroke-linecap:butt;stroke-linejoin:miter;stroke-miterlimit:4;stroke-dasharray:none;stroke-dashoffset:0;stroke-opacity:1;color-rendering:auto;image-rendering:auto;shape-rendering:auto;text-rendering:auto;enable-background:accumulate;stop-color:#000000;stop-opacity:1;stroke:none;opacity:1"
     d="m 416,432 c -12.70048,-0.009 -20.32765,-14.10179 -13.39,-24.74 C 429.85,365.47 448,323.76 448,256 c 0,-66.5 -18.18,-108.62 -45.49,-151.39 -4.75517,-7.455849 -2.56584,-17.354823 4.89,-22.109994 7.45585,-4.755172 17.35483,-2.565855 22.11,4.889994 30.3,47.5 50.49,94.35 50.49,168.61 0,64.75 -14.66,113.63 -50.6,168.74 -2.95323,4.5285 -7.99363,7.25934 -13.4,7.26 z"
     id="path8" />
</svg>

<svg xmlns="http://www.w3.org/2000/svg" width="512" height="512" viewBox="0 0 512 512"><title>ionicons-v5-g</title><path d="M232,416a23.88,23.88,0,0,1-14.2-4.68,8.27,8.27,0,0,1-.66-.51L125.76,336H56a24,24,0,0,1-24-24V200a24,24,0,0,1,24-24h69.75l91.37-74.81a8.27,8.27,0,0,1,.66-.51A24,24,0,0,1,256,120V392a24,24,0,0,1-24,24ZM125.82,336Zm-.27-159.86Z"/><path d="M320,336a16,16,0,0,1-14.29-23.19c9.49-18.87,14.3-38,14.3-56.81,0-19.38-4.66-37.94-14.25-56.73a16,16,0,0,1,28.5-14.54C346.19,208.12,352,231.44,352,256c0,23.86-6,47.81-17.7,71.19A16,16,0,0,1,320,336Z"/><path d="M368,384a16,16,0,0,1-13.86-24C373.05,327.09,384,299.51,384,256c0-44.17-10.93-71.56-29.82-103.94a16,16,0,0,1,27.64-16.12C402.92,172.11,416,204.81,416,256c0,50.43-13.06,83.29-34.13,120A16,16,0,0,1,368,384Z"/><path d="M416,432a16,16,0,0,1-13.39-24.74C429.85,365.47,448,323.76,448,256c0-66.5-18.18-108.62-45.49-151.39a16,16,0,1,1,27-17.22C459.81,134.89,480,181.74,480,256c0,64.75-14.66,113.63-50.6,168.74A16,16,0,0,1,416,432Z"/></svg>
